X:1
T:Sir Cawline
M:4/4
L:1/4
K:C
 B/2| c c/2c/2 d d| c e d2| c c d d| c e d3/2| c/2| A3/2 A/2 G G| A3/2 B/2 c3/2 d/2|\
 A A G c3/4 E/4| E3/2 E/2 D3/2||
